X:11264
T:Mountain Top
R:Reel
S:
H:
N:
D:
Z:Adrian Scahill
M:4/4
L:1/8
K:G
BGAG EGDE|G2Bd edgd|BGAG EGD2|BdAc BGG2:||\
Bddg edBA|Bdea gfed|BddB (3ded gd|B2Ac BGG2|\
Bddg edBA|Bdef g3a|b2af gfed|egfa gedc||\
